contact/img/mail.svg

<!--?xml version="1.0" encoding="utf-8"?-->
<!-- Generator: Adobe Illustrator 18.1.1, SVG Export Plug-In . SVG Version: 6.00 Build 0)  -->

<svg version="1.1" id="_x32_" xmlns="http://www.w3.org/2000/svg" xmlns:xlink="http://www.w3.org/1999/xlink" x="0px" y="0px" viewBox="0 0 512 512" style="width: 256px; height: 256px; opacity: 1;" xml:space="preserve">
<style type="text/css">
	.st0{fill:#4B4B4B;}
</style>
<g>
	<path class="st0" d="M510.678,112.275c-2.308-11.626-7.463-22.265-14.662-31.054c-1.518-1.915-3.104-3.63-4.823-5.345
		c-12.755-12.818-30.657-20.814-50.214-20.814H71.021c-19.557,0-37.395,7.996-50.21,20.814c-1.715,1.715-3.301,3.43-4.823,5.345
		C8.785,90.009,3.63,100.649,1.386,112.275C0.464,116.762,0,121.399,0,126.087V385.92c0,9.968,2.114,19.55,5.884,28.203
		c3.497,8.26,8.653,15.734,14.926,22.001c1.59,1.586,3.169,3.044,4.892,4.494c12.286,10.175,28.145,16.32,45.319,16.32h369.958
		c17.18,0,33.108-6.145,45.323-16.384c1.718-1.386,3.305-2.844,4.891-4.43c6.27-6.267,11.425-13.741,14.994-22.001v-0.064
		c3.769-8.653,5.812-18.171,5.812-28.138V126.087C512,121.399,511.543,116.762,510.678,112.275z M46.509,101.571
		c6.345-6.338,14.866-10.175,24.512-10.175h369.958c9.646,0,18.242,3.837,24.512,10.175c1.122,1.129,2.179,2.387,3.112,3.637
		L274.696,274.203c-5.348,4.687-11.954,7.002-18.696,7.002c-6.674,0-13.276-2.315-18.695-7.002L43.472,105.136
		C44.33,103.886,45.387,102.7,46.509,101.571z M36.334,385.92V142.735L176.658,265.15L36.405,387.435
		C36.334,386.971,36.334,386.449,36.334,385.92z M440.979,420.597H71.021c-6.281,0-12.158-1.651-17.174-4.552l147.978-128.959
		l13.815,12.018c11.561,10.046,26.028,15.134,40.36,15.134c14.406,0,28.872-5.088,40.432-15.134l13.808-12.018l147.92,128.959
		C453.137,418.946,447.26,420.597,440.979,420.597z M475.666,385.92c0,0.529,0,1.051-0.068,1.515L335.346,265.221L475.666,142.8
		V385.92z" style="fill: rgb(112, 112, 112);"></path>
</g>
</svg>

<svg id="_2" data-name="2" xmlns="http://www.w3.org/2000/svg" viewBox="0 0 512 512"><defs><style>.cls-1{fill:#707070;}</style></defs><path class="cls-1" d="M510.68,112.27a71,71,0,0,0-14.66-31,61.23,61.23,0,0,0-4.83-5.34A70.84,70.84,0,0,0,441,55.06H71A71,71,0,0,0,20.81,75.88,62.76,62.76,0,0,0,16,81.22a69.89,69.89,0,0,0-14.6,31.05A68.2,68.2,0,0,0,0,126.09V385.92a70.58,70.58,0,0,0,5.88,28.2,69.64,69.64,0,0,0,14.93,22c1.59,1.59,3.17,3.05,4.89,4.5A71,71,0,0,0,71,456.94H441a70.49,70.49,0,0,0,45.32-16.39,58.18,58.18,0,0,0,4.89-4.43,71,71,0,0,0,15-22v-.06A70.24,70.24,0,0,0,512,385.92V126.09A73.57,73.57,0,0,0,510.68,112.27ZM46.51,101.57A34.29,34.29,0,0,1,71,91.4H441a34.06,34.06,0,0,1,27.62,13.81l-193.9,169a28.45,28.45,0,0,1-37.4,0L43.47,105.14A26.63,26.63,0,0,1,46.51,101.57ZM36.33,385.92V142.73L176.66,265.15,36.4,387.43A10.41,10.41,0,0,1,36.33,385.92ZM441,420.6H71A34.09,34.09,0,0,1,53.85,416l148-129,13.82,12a61.46,61.46,0,0,0,80.79,0l13.81-12L458.16,416A34.16,34.16,0,0,1,441,420.6Zm34.69-34.68a10.62,10.62,0,0,1-.07,1.52L335.35,265.22,475.67,142.8Z"/></svg>
